src/images/skill/bushcraft/master.svg

<svg xmlns="http://www.w3.org/2000/svg" viewBox="0 0 512 512" style="height: 512px; width: 512px;"><g class="" transform="translate(0,0)" style=""><path d="M55.893 18c20.255 42.71 34.502 82.365 44.09 119.205 9.95 9.657 22.02 16.683 40.175 18.91l-2.193 17.865c-12.464-1.529-22.85-5.183-31.742-10.17C138.575 319.013 88.719 421.77 73.203 494h32.531c-5.228-7.222-9.131-15.216-11.3-24.12l17.488-4.26c2.614 10.727 8.695 20.04 17.832 28.38h76.719c-8.614-9.956-15.583-14.876-26.389-23.14 11.033-24.232 16.876-53.512 17.84-76.534.865-24.605-3.535-47.292-9.336-55.54-4.69-6.671-6.959-6.517-8.813-6.161-4.863 2.51-10.723 8.99-8.212 15.041.523 1.109.718 2.5 8.119 1.652l2.047 17.883c-11.93 1.366-22.476-3.454-26.442-11.847-3.966-8.394-2.184-17.263 1.613-24.604 6.7-9.123 13.04-16.006 23.008-16.156 8.311-.098 17.083 4.849 23.405 13.838 10.876 15.467 13.538 39.883 12.601 66.525-.845 24.044-5.324 49.54-13.658 70.334 11.69 9.241 19.56 16.652 24.799 25.826.542.95 1.047 1.911 1.529 2.883h83.428c10.492-11.908 33.088-38.206 32.191-49.662-1.56-10.148-5.896-34.726-2.672-61.22 2.97-24.41 13.047-51.275 37.764-69.071-10.118-25.297-15.014-48.803-11.44-70.902 3.345-20.677 14.356-39.462 33.473-55.85 3.407-22.269 8.505-45.782 15.635-70.793C395.107 88.252 375.69 49.267 379.24 18h-27.73c-4.086 16.047-11.325 30.385-21.508 42.932 19.18 8.716 37.036 20.001 51.812 33.931 6.674 6.291 10.71 12.903 11.04 20.094.33 7.192-3.588 13.284-7.93 17.023-8.685 7.48-18.818 9.844-26.742 9.838l-.09-.002c.459 3.501.7 7.06.719 10.63 0 31.412-16.787 56.877-37.495 56.878-9.189-.02-18.053-5.16-24.91-14.441-4.72 9.433-7.33 17.026-8.256 23.015-1.25 8.1.01 13.173 3.465 18.643 6.87 10.874 25.667 22.352 41.727 33.027 16.06 10.675 21.18 14.43 25.162 18.233 3.982 3.802 6.823 7.571 8.736 11.552 3.908 8.132 2.253 18.061-3.31 23.616-5.563 5.554-13.15 7.616-20.951 7.496a39.202 39.202 0 0 1-23.254-8.139c-27.566-14.223-47.786-18.85-93.077-15.396l-1.369-17.95c37.582-2.865 61.733.284 85 9.37 1.31-6.178 6.023-12.022 9.983-15.098-19.149-12.805-34.803-22.755-43.864-37.096-5.506-8.716-7.834-19.374-6.037-31.006 1.797-11.632 7.174-24.354 16.274-39.98l.431.252c-2.124-7.233-3.23-15.059-3.246-22.977-6.863-9.851-14.724-22.893-20.007-33.375C250.71 87.815 236.743 49.856 242.976 18H223.9a29.07 29.07 0 0 1 6.229 5.586c7.907 9.458 10.594 24.203 6.064 42.61-3.531 14.348-16.44 24.037-32.318 31.872 21.981 15.068 28.231 41.332 25.414 64.45 12.262 20.473 15.21 39.086 10.725 54.25-4.626 15.638-16.823 26.519-30.748 31.796a61.81 61.81 0 0 1-18.71 3.907c-19.525 15.082-31.964 40.21-39.232 63.777-7.343 23.812-9.487 45.95-9.806 52.52-.404 8.304-.067 14.02.771 17.689.838 3.67 1.824 5.273 3.758 7.166 14.296 9.194 22.257 12.273 35.71 19.213-1.561 22.266-14.59 49.26-33.15 53.644-8.577 1.734-18.416-1.6-23.875-9.394-5.458-7.794-7.029-18.515-5.152-31.979l17.828 2.487c-.855 6.338-1.204 22.968 7.633 21.244 5.152-1.042 14.755-9.3 17.62-25.428-12.346-5.974-21.943-9.816-29.204-16.924-4.22-4.13-7.268-9.685-8.715-16.021s-1.645-13.47-1.203-22.57c.404-8.324 2.625-31.134 10.586-56.95 6.459-20.943 16.646-43.912 33.395-61.765-16.438-7.127-29.564-23.24-33.207-36.383l17.43-4.494c3.188 12.37 10.677 19.495 20.224 23.33 9.546 3.834 21.249 3.764 30.918.1 9.669-3.665 17.014-10.426 19.867-20.07 1.827-6.176 1.919-13.992-1.232-23.606-7.112 13.293-17.793 21.02-29.079 21.037-20.707-.001-37.494-25.467-37.494-56.881.004-15.261 4.05-29.88 11.229-40.57-11.135 2.621-22.454 4.122-33.088 4.113-10.248-.598-17.04-7.598-19.375-16.578a37.202 37.202 0 0 1 1.336-22.399l16.808 6.442c-.752 4.418-2.839 11.357 1.247 14.535 17.112.015 38.581-5.018 55.677-12.514 17.096-7.496 28.737-18.485 29.934-23.347 3.629-14.746.886-22.84-2.395-26.764-3.28-3.924-7.706-4.822-11.91-3.502-25.829 8.112-39.436 28.974-51.492 43.473l-13.842-11.508c1.77-2.13 3.795-4.716 5.955-7.455-28.16-4.274-44.898-12.392-55.01-24.301-3.733-4.397-6.392-9.053-8.37-13.838zm46.18 0c11.82 15.062 47.513 20.735 57.08 21.78 7.959-8.107 17.867-16.141 30.507-21.78zm159.322 0c-5.575 28.77 7.628 70.663 18.515 93.018 2.78 5.555 5.68 10.52 8.35 14.627 1.574-4.41 3.526-8.483 5.804-12.116-2.695-5.424-4.598-11.175-6.544-16.845l17.025-5.844c3.992 11.632 6.794 19.219 12.861 24.162 6.068 4.943 17.257 8.798 40.791 8.816 1.688.001 11.656-2.613 14.98-5.476 1.663-1.432 1.729-1.852 1.696-2.56-.032-.71-.704-3.388-5.406-7.821-19.864-18.726-47.198-32.879-75.662-41.397l5.16-17.244a252.311 252.311 0 0 1 13.506 4.477C322.14 43.294 329.01 31.56 333.059 18zm136.037 0c-1.61 32.029 10.004 54.533 26.048 76.998a743.03 743.03 0 0 1 7.458-22.033c-5.563-16.19-9.075-34.528-8.293-54.965zm43.226 0c-.397 8.999.13 17.518 1.383 25.582A926.806 926.806 0 0 1 452.719 18zm-248.451 85.031c-50.21 23.874-13.672 118.814 13.906 89.143-35.226-18.294-28.924-53.796-13.906-89.143zm108.674 20.916c-16.06 35.543 11.916 92.332 34.105 68.46-25.374-13.178-29.19-35.289-23.732-59.835-3.98-2.367-7.535-5.372-10.373-8.625zm96.8 93.21c-6.62 9.127-10.404 18.653-12.056 28.863-1.13 26.049 5.105 49.14 13.08 67.959-3.346-30.078-4.224-61.953-1.023-96.823zm-60.255 77c-7.472 2.73-9.12 5.785-9.479 7.363.75 7.337 8.653 10.767 15.309 10.949 4.046.062 7.139-1.42 7.957-2.237 1.933-4.613-9.564-15.62-13.787-16.076zm62.262 28.1l-4.762 2.815c-23.848 14.095-32.7 36.992-35.526 60.219-2.826 23.227.957 45.666 2.594 56.31 1.062 20.913-14.167 38.535-25.943 52.399h64.117c-4.14-10.25-7.577-20.837-9.232-31.896-3.314-22.129 1.704-46.105 21.783-69.58-2.34-10.06-4.556-20.203-6.563-30.499-7.14 8.134-14.31 21.202-18.42 41.053l-17.625-3.65c6.152-29.715 18.6-48.73 32.254-58.63a567.2 567.2 0 0 1-2.678-18.54zM276.868 335.7c29.759 0 53.884 28.015 53.884 62.574 0 34.56-24.125 62.575-53.885 62.575-29.758 0-53.882-28.016-53.883-62.575 0-34.558 24.125-62.573 53.883-62.574zm-11.32 13.319c-44.316 32.71-28.725 83.256-2.323 96.683-9.495-25.612-10.397-54.51 2.324-96.683zm152.593 65.91c-10.101 15.546-11.615 29.75-9.405 44.511 1.674 11.178 5.946 22.694 11.108 34.561h18.068c-6.143-26.73-13.194-52.744-19.771-79.072z" fill="#fff" fill-opacity="1"></path></g></svg>

<svg xmlns="http://www.w3.org/2000/svg" viewBox="0 0 512 512" style="height: 512px; width: 512px;"><g class="" transform="translate(0,0)" style=""><g><path d="M55.893 18C76.148 60.71 90.395 100.365 99.983 137.205C109.933 146.862 122.003 153.888 140.158 156.115L137.965 173.98C125.501 172.451 115.115 168.797 106.223 163.81C138.575 319.013 88.719 421.77 73.203 494L105.734 494C100.506 486.778 96.603 478.784 94.434 469.88L111.922 465.62C114.536 476.347 120.617 485.66 129.754 494L206.473 494C197.859 484.044 190.89 479.124 180.084 470.86C191.117 446.628 196.96 417.348 197.924 394.326C198.789 369.721 194.389 347.034 188.588 338.786C183.898 332.115 181.629 332.269 179.775 332.625C174.912 335.135 169.052 341.615 171.563 347.666C172.086 348.775 172.281 350.166 179.682 349.318L181.729 367.201C169.799 368.567 159.253 363.747 155.287 355.354C151.321 346.96 153.103 338.091 156.9 330.75C163.6 321.627 169.94 314.744 179.908 314.594C188.219 314.496 196.991 319.443 203.313 328.432C214.189 343.899 216.851 368.315 215.914 394.957C215.069 419.001 210.59 444.497 202.256 465.291C213.946 474.532 221.816 481.943 227.055 491.117C227.597 492.067 228.102 493.028 228.584 494L312.012 494C322.504 482.092 345.1 455.794 344.203 444.338C342.643 434.19 338.307 409.612 341.531 383.118C344.501 358.708 354.578 331.843 379.295 314.047C369.177 288.75 364.281 265.244 367.855 243.145C371.2 222.468 382.211 203.683 401.328 187.295C404.735 165.026 409.833 141.513 416.963 116.502C395.107 88.252 375.69 49.267 379.24 18L351.51 18C347.424 34.047 340.185 48.385 330.002 60.932C349.182 69.648 367.038 80.933 381.814 94.863C388.488 101.154 392.524 107.766 392.854 114.957C393.184 122.149 389.266 128.241 384.924 131.98C376.239 139.46 366.106 141.824 358.182 141.818L358.092 141.816C358.551 145.317 358.792 148.876 358.811 152.446C358.811 183.858 342.024 209.323 321.316 209.324C312.127 209.304 303.263 204.164 296.406 194.883C291.686 204.316 289.076 211.909 288.15 217.898C286.9 225.998 288.16 231.071 291.615 236.541C298.485 247.415 317.282 258.893 333.342 269.568C349.402 280.243 354.522 283.998 358.504 287.801C362.486 291.603 365.327 295.372 367.24 299.353C371.148 307.485 369.493 317.414 363.93 322.969C358.367 328.523 350.78 330.585 342.979 330.465C334.554 330.322 326.4 327.468 319.725 322.326C292.159 308.103 271.939 303.476 226.648 306.93L225.279 288.98C262.861 286.115 287.012 289.264 310.279 298.35C311.589 292.172 316.302 286.328 320.262 283.252C301.113 270.447 285.459 260.497 276.398 246.156C270.892 237.44 268.564 226.782 270.361 215.15C272.158 203.518 277.535 190.796 286.635 175.17L287.066 175.422C284.942 168.189 283.836 160.363 283.82 152.445C276.957 142.594 269.096 129.552 263.813 119.07C250.71 87.815 236.743 49.856 242.976 18L223.9 18C226.235 19.552 228.333 21.433 230.129 23.586C238.036 33.044 240.723 47.789 236.193 66.196C232.662 80.544 219.753 90.233 203.875 98.068C225.856 113.136 232.106 139.4 229.289 162.518C241.551 182.991 244.499 201.604 240.014 216.768C235.388 232.406 223.191 243.287 209.266 248.564C203.27 250.829 196.958 252.147 190.556 252.471C171.031 267.553 158.592 292.681 151.324 316.248C143.981 340.06 141.837 362.198 141.518 368.768C141.114 377.072 141.451 382.788 142.289 386.457C143.127 390.127 144.113 391.73 146.047 393.623C160.343 402.817 168.304 405.896 181.757 412.836C180.196 435.102 167.167 462.096 148.607 466.48C140.03 468.214 130.191 464.88 124.732 457.086C119.274 449.292 117.703 438.571 119.58 425.107L137.408 427.594C136.553 433.932 136.204 450.562 145.041 448.838C150.193 447.796 159.796 439.538 162.661 423.41C150.315 417.436 140.718 413.594 133.457 406.486C129.237 402.356 126.189 396.801 124.742 390.465C123.295 384.129 123.097 376.995 123.539 367.895C123.943 359.571 126.164 336.761 134.125 310.945C140.584 290.002 150.771 267.033 167.52 249.18C151.082 242.053 137.956 225.94 134.313 212.797L151.743 208.303C154.931 220.673 162.42 227.798 171.967 231.633C181.513 235.467 193.216 235.397 202.885 231.733C212.554 228.068 219.899 221.307 222.752 211.663C224.579 205.487 224.671 197.671 221.52 188.057C214.408 201.35 203.727 209.077 192.441 209.094C171.734 209.093 154.947 183.627 154.947 152.213C154.951 136.952 158.997 122.333 166.176 111.643C155.041 114.264 143.722 115.765 133.088 115.756C122.84 115.158 116.048 108.158 113.713 99.178C111.842 91.752 112.309 83.93 115.049 76.779L131.857 83.221C131.105 87.639 129.018 94.578 133.104 97.756C150.216 97.771 171.685 92.738 188.781 85.242C205.877 77.746 217.518 66.757 218.715 61.895C222.344 47.149 219.601 39.055 216.32 35.131C213.04 31.207 208.614 30.309 204.41 31.629C178.581 39.741 164.974 60.603 152.918 75.102L139.076 63.594C140.846 61.464 142.871 58.878 145.031 56.139C116.871 51.865 100.133 43.747 90.021 31.838C86.288 27.441 83.629 22.785 81.651 18Z" class="selected" fill="#450000" fill-opacity="1"></path><path d="M102.073 18C113.893 33.062 149.586 38.735 159.153 39.78C167.112 31.673 177.02 23.639 189.66 18Z" class="" fill="#450000" fill-opacity="1"></path><path d="M261.395 18C255.82 46.77 269.023 88.663 279.91 111.018C282.69 116.573 285.59 121.538 288.26 125.645C289.834 121.235 291.786 117.162 294.064 113.529C291.369 108.105 289.466 102.354 287.52 96.684L304.545 90.84C308.537 102.472 311.339 110.059 317.406 115.002C323.474 119.945 334.663 123.8 358.197 123.818C359.885 123.819 369.853 121.205 373.177 118.342C374.84 116.91 374.906 116.49 374.873 115.782C374.841 115.072 374.169 112.394 369.467 107.961C349.603 89.235 322.269 75.082 293.805 66.564L298.965 49.32C303.508 50.685 308.012 52.178 312.471 53.797C322.14 43.294 329.01 31.56 333.059 18Z" class="" fill="#450000" fill-opacity="1"></path><path d="M397.432 18C395.822 50.029 407.436 72.533 423.48 94.998C425.851 87.615 428.337 80.27 430.938 72.965C425.375 56.775 421.863 38.437 422.645 18Z" class="" fill="#450000" fill-opacity="1"></path><path d="M440.658 18C440.261 26.999 440.788 35.518 442.041 43.582C445.473 35.002 449.032 26.474 452.719 18Z" class="" fill="#450000" fill-opacity="1"></path><path d="M192.207 103.031C141.997 126.905 178.535 221.845 206.113 192.174C170.887 173.88 177.189 138.378 192.207 103.031Z" class="" fill="#000000" fill-opacity="1"></path><path d="M300.881 123.947C284.821 159.49 312.797 216.279 334.986 192.407C309.612 179.229 305.796 157.118 311.254 132.572C307.274 130.205 303.719 127.2 300.881 123.947Z" class="" fill="#000000" fill-opacity="1"></path><path d="M397.681 217.157C391.061 226.284 387.277 235.81 385.625 246.02C384.495 272.069 390.73 295.16 398.705 313.979C395.359 283.901 394.481 252.026 397.682 217.156Z" class="" fill="#450000" fill-opacity="1"></path><path d="M337.426 294.157C329.954 296.887 328.306 299.942 327.947 301.52C328.697 308.857 336.6 312.287 343.256 312.469C347.302 312.531 350.395 311.049 351.213 310.232C353.146 305.619 341.649 294.612 337.426 294.156Z" class="" fill="#450000" fill-opacity="1"></path><path d="M399.688 322.257L394.926 325.072C371.078 339.167 362.226 362.064 359.4 385.291C356.574 408.518 360.357 430.957 361.994 441.601C363.056 462.514 347.827 480.136 336.051 494L400.168 494C396.028 483.75 392.591 473.163 390.936 462.104C387.622 439.975 392.64 415.999 412.719 392.524C410.379 382.464 408.163 372.321 406.156 362.025C399.016 370.159 391.846 383.227 387.736 403.078L370.111 399.428C376.263 369.713 388.711 350.698 402.365 340.798C401.37 334.633 400.478 328.452 399.687 322.258Z" class="" fill="#450000" fill-opacity="1"></path><path d="M276.868 335.7C306.627 335.7 330.752 363.715 330.752 398.274C330.752 432.834 306.627 460.849 276.867 460.849C247.109 460.849 222.985 432.833 222.984 398.274C222.984 363.716 247.109 335.701 276.867 335.7Z" class="" fill="#000000" fill-opacity="1"></path><path d="M265.548 349.019C221.232 381.729 236.823 432.275 263.225 445.702C253.73 420.09 252.828 391.192 265.549 349.019Z" class="" fill="#000000" fill-opacity="1"></path><path d="M418.141 414.929C408.04 430.475 406.526 444.679 408.736 459.44C410.41 470.618 414.682 482.134 419.844 494.001L437.912 494.001C431.769 467.271 424.718 441.257 418.141 414.929Z" class="" fill="#450000" fill-opacity="1"></path></g></g></svg>
